icons/strikethrough-16.svg

<svg width="16" height="16" viewBox="0 0 16 16" fill="none" xmlns="http://www.w3.org/2000/svg">
<path fill-rule="evenodd" clip-rule="evenodd" d="M7.58145 3.25C5.54537 3.25 4.80312 4.33222 4.80312 5.03603C4.80312 5.09099 4.80513 5.14323 4.80892 5.19292C4.84044 5.60593 4.53119 5.9663 4.11817 5.99782C3.70516 6.02935 3.34479 5.72009 3.31327 5.30708C3.30646 5.21789 3.30312 5.12753 3.30312 5.03603C3.30312 3.20384 5.05273 1.75 7.58145 1.75C8.99875 1.75 10.3024 2.33076 11.095 2.84266C11.443 3.06738 11.5429 3.53163 11.3182 3.87958C11.0934 4.22754 10.6292 4.32744 10.2812 4.10272C9.64123 3.68937 8.61898 3.25 7.58145 3.25ZM11.0545 8.5H14.25C14.6642 8.5 15 8.16421 15 7.75C15 7.33579 14.6642 7 14.25 7H7.86452C7.85432 6.99979 7.84415 6.99979 7.83401 7H1.75C1.33579 7 1 7.33579 1 7.75C1 8.16421 1.33579 8.5 1.75 8.5H7.76849C8.60297 8.68744 9.27116 8.96398 9.71913 9.31033C10.158 9.64967 10.3663 10.0347 10.3663 10.5073C10.3663 10.9347 10.2072 11.4022 9.77177 11.7743C9.32834 12.1532 8.51809 12.5 7.09633 12.5C5.72265 12.5 4.7157 12.007 4.23575 11.5437C3.93774 11.256 3.46294 11.2644 3.17525 11.5624C2.88756 11.8604 2.89593 12.3352 3.19394 12.6229C3.99202 13.3933 5.39099 14 7.09633 14C8.74843 14 9.94813 13.5966 10.7462 12.9147C11.5523 12.2259 11.8663 11.322 11.8663 10.5073C11.8663 9.69277 11.5511 9.02398 11.0545 8.5Z" fill="black"/>
</svg>

<svg xmlns="http://www.w3.org/2000/svg" width="16" height="16" viewBox="0 0 16 16"><path d="M0 0h16v16H0z"/><path fill-rule="evenodd" d="M7.581 3.25c-2.036 0-2.778 1.082-2.778 1.786 0 .055.002.107.006.157a.75.75 0 01-1.496.114 3.56 3.56 0 01-.01-.271c0-1.832 1.75-3.286 4.278-3.286 1.418 0 2.721.58 3.514 1.093a.75.75 0 11-.814 1.26c-.64-.414-1.662-.853-2.7-.853zm3.474 5.25h3.195a.75.75 0 000-1.5H1.75a.75.75 0 000 1.5h6.018c.835.187 1.503.464 1.951.81.439.34.647.725.647 1.197 0 .428-.159.895-.594 1.267-.444.38-1.254.726-2.676.726-1.373 0-2.38-.493-2.86-.956a.75.75 0 00-1.042 1.079C3.992 13.393 5.39 14 7.096 14c1.652 0 2.852-.403 3.65-1.085a3.134 3.134 0 001.12-2.408 2.85 2.85 0 00-.811-2.007z"/></svg>
